X: 1
T: Pencarrow
T: Camp's End
T: the Deer's Head
T: Lord Arscott Of Tetcott
O: Cornwall, England
F: http://www.thesession.org/tunes/display/6689
M: 3/4
L: 1/8
R: waltz
K: Edor
|: E>E | E2 B3 B | B2 c2 d2 | c2 A3 ^G | A4 AB |\
G2 GA GE | F3 G A2 | B2 E3 F | D4 B>c |
d3 e d2 | c2 B3 c | d2 (3cdc (3BcB | A4 E2 |\
B2 BA Bc | (3ded c2 B2 | A2 F3 G | F4 ED |
B3 B BE | B2 c2 d2 | c2 (3BcB A^G | A4 (3FGA |\
G3 F E2 | F2 G2 A2 | B2 e3 ^d | e4 :|
